X: 1
T:The Back of Benachie  "CYMRU"
M:C|
L:1/8
Q:80
C:Trad.
S:March
K:HP
|: e|
{g}A{GdGe}A3/4{d}B/4{g}A3/4B/4{Gdc}d3/4e/4|
{g}f{GdG}f{gfg}fe/4d3/4|
{g}f{GdG}f{gfg}fe/4d3/4|  !
{gef}e{GdG}e3/4f/4{gfg}f3/4e/4{gde}d3/4B/4| |
{g}A{GdGe}A3/4{d}B/4{g}A3/4B/4{Gdc}d3/4e/4|
{g}f{GdG}f{gfg}fe/4d3/4|  !
{gfg}f{ag}aA{g}B/4c3/4|
{Gdc}d2{gdc}d:| |:
a3/4g/4|  !
{fg}f{g}e/4f3/4{Gdc}d{gef}e3/4d/4|
{gcd}c{e}B/4{d}c3/4{G}A2|
{gBd}B3/2e/2{gef}e3/2{GdG}e/2|  !
{gfg}f3/2e/2{A}ea/4g3/4| |
{fg}f{g}e/4f3/4{Gdc}d{gef}e3/4d/4|
{gcd}c{e}B/4{d}c3/4{G}A2|  !
{gBd}Be{gcd}c{g}B/4{d}A/2|
{Gdc}d2{gdc}d:|
